X: 2182
T: Lord Doune's    Strathspey
%R: strathspey
B: Niel Gow & Sons "A Second Collection of Strathspey Reels, etc." v.2 p.18 #2
Z: 2022 John Chambers <jc:trillian.mit.edu>
M: C
L: 1/8
K: Gdor
% - - - - - - - - - -
% Voice 1 reformatted for 1 8-bar lines, for compactness and proofreading.
V: 1 staves=2
g |\
d<Gc>A TF>GAc | d<GTd>c d>efg | f<dTc>A F>GAc | d<BTc>A {A}G2G :|\
|: A |\
Gg-g>a f>cfa | g/g/g Tg2 (f>g)ag | f<dTc>A F>GAc | d>Gc>A {A}G2G :|
% - - - - - - - - - -
% Voice 2 preserves the staff layout in the book.
V: 2 clef=bass middle=d
z |\
g2g2 f2f2 | g2g2 g2g2 | b2a2 f2f2 | g2d2 G2G :||: z |
g2g2 f2f2 | g2g2 a2a2 | b2a2 f2f2 | g2d2 G2G :|
